X:1
T:Title
%%score 1 2 { 3 | 4 }
L:1/8
M:4/4
K:Eb
V:1 treble nm="Church Organ, Staff-1"
V:2 treble nm="Grand Piano, Right Hand"
V:3 bass nm="Grand Piano, Left Hand"
V:4 bass 
V:1
 B2 B2 B2 c2 | c4 B4 | A2 G2 F2 =E2 | F4 B4 | B2 B2 B2 c2 | c4 B4 | B2 =A2 A2 d2 | d8 | %8
w: By~A.~P.~Howard * * *||||||||
 e2 d2 c2 G2 | c4 c4 | d2 c2 F2 c2 | B8 | G2 G2 A2 B2 | c4 e4 | e2 G2 F2 B2 | E8 |] %16
w: ||||||||
V:2
 [EGB]2 [EGB]2 [EGB]2 [EGc]2 | [EGc]4 [EGB]4 | [DA]2 [DG]2 [DF]2 [_D=E]2 | [B,DF]4 [DFB]4 | %4
w: In~ the~ lone ly~|mid night~|on~ the~ win try~|hill,~ *|
 [EGB]2 [EGB]2 [EGB]2 [EGc]2 | [EGc]4 [EGB]4 | [EGB]2 [D_G=A]2 [DGA]2 [GAd]2 | [GBd]4 [FAd]4 | %8
w: Shep herds~ heard~ the~|an gels~|sing ing,~ "Peace,~ good~|will."~ *|
 [EGBe]2 [EGBd]2 [CEGc]2 [CEG]2 | [DAc]4 [DAc]4 | [DAd]2 [DAc]2 [B,DF]2 [DFAc]2 | [B,EGB]8 | %12
w: Lis ten,~ O~ ye~|wea ry,~|to~ the~ an gels'~|song,~|
 [_DEG]2 [DEG]2 [DEA]2 [DEB]2 | [CEc]4 [E_Gce]4 | [EGBe]2 [CEG]2 [CEF]2 [B,DFB]2 | [G,B,E]8 |] %16
w: Un to~ you~ the~|ti dings~|of~ great~ joy~ be|long.~|
V:3
 B,2 B,2 B,2 B,2 | B,4 B,4 | B,2 B,2 B,2 B,2 | A,4 A,4 | G,2 B,2 B,2 B,2 | B,4 B,4 | %6
 D,2 D,2 C2 C2 | G,2 B,2 B,,2 A,2 | E,,2 B,2 B,,2 B,2 | F,2 D2 B,,2 D2 | B,,2 D2 B,,2 A,2 | %11
 E,,2 E,2 G,2 B,2 | B,2 B,2 B,2 B,2 | A,4 =A,4 | B,2 G,2 A,2 A,2 | G,8 |] %16
V:4
 E,2 B,,2 E,2 B,,2 | E,2 B,,2 E,2 B,,2 | F,2 G,2 A,2 G,2 | B,,4 F,2 B,,2 | E,2 B,,2 E,2 B,,2 | %5
 E,2 B,,2 E,2 B,,2 | D,,2 z2 D,2 D,2 | G,,2 [D,G,]2 B,,,2 [B,,F,]2 | z2 [E,G,]2 z2 [E,G,]2 | %9
 F,,2 [A,B,]2 B,,,2 [A,B,]2 | B,,,2 [A,B,]2 B,,,2 B,,2 | z8 | E,2 E,2 F,2 G,2 | z4 =A,,4 | %14
 B,,2 C,2 A,,2 B,,2 | E,,8 |] %16

